packages/synapse-interface/assets/chains/canto.svg

<svg fill="none" height="48" viewBox="0 0 48 48" width="48" xmlns="http://www.w3.org/2000/svg"><path clip-rule="evenodd" d="m46.2864 0v48l-36.2143-.0003v-8.4707h-8.3571v-31.05841h8.3571v-8.47059zm-29.2504 8.47099h20.8928v8.47061h-20.8928zm20.8928 24.00001h-20.8928v-15.5294l-8.35714.0004v15.5293l8.35714-.0003v8.4706h20.8928z" fill="#06fc99" fill-rule="evenodd"/></svg>

<svg width="48" height="48" viewBox="0 0 48 48" fill="none" xmlns="http://www.w3.org/2000/svg">
<path fill-rule="evenodd" clip-rule="evenodd" d="M46.2864 0V48L10.0721 47.9997V39.529H1.715V8.47059H10.0721V0H46.2864ZM17.036 8.47099H37.9288V16.9416H17.036V8.47099ZM37.9288 32.471H17.036V16.9416L8.67886 16.942V32.4713L17.036 32.471V40.9416H37.9288V32.471Z" fill="#06FC99"/>
</svg>
